X: 106
M:6/8
L:1/8
K:D
g | f>ga a2g | f>ga gdB ||\
g | f>ga e>fg | f>ga gdB ||\
g | f2e f/e/f/g/a | gec fdB ||\
e>fe cAd | cdc fdB ||
cAd cAd cac BdB ||\
a2e f/e/f/g/a | g/f/e/d/c f/e/d/c/B ||\
e>fe f/e/f/g/a | g/f/e/d/c f/e/d/c/B ||
aec aec | aec BGB ||\
ceA dfA | ceA fdB ||\
cac dbd | cac BGB ||
e3g3 | aec fdB ||\
e>fe f>ga | gec fdB ||\
e3c3 | cec fdB ||
cAd cAd | cec fdB ||\
e3g3 | a2cB2g ||\
a2c a2c | a2cB2g ||
a3e3 | cec fdB ||\
e/e/e/e/e cAc | e/e/e/e/e BGB ||\
a/a/a/a/a cAc | a/a/a/a/a BGB ||
cAd cAd | cAd BGB ||\
aec aec | aec fdB ||

